!!!ONB: MCCC : IJH0465_01 : Extracted Monophonic Melody
!!!COM: Haydn, Joseph
!!!OPR: String Quartet in G major
!!!OMV: 1
!!!SCT: Hob.III:75 ; Op.76 No.1
!!!ODT: 1796///
**kern
*thru
*k[f#]
*G:
*clefF
*M2/2
4gg
4r
4aa
4r
=1
4bb
4r
4r
4r
=2
1r
=3
1r
=4
1r
=5
1r
=6
1r
=7
1r
=8
1r
=9
1r
=10
1r
=11
1r
=12
1r
=13
2.r
4ee
=14
4cc
4a
4dd
4b
=15
4g#
8b
8g#
4e
8f#
8g#
=16
4a
4cc
4d
4f#
=17
2g
4G
4gg
=18
4ee
4gg
4cc
4ee
=19
4dd
8b
8cc
4dd
4gg
=20
4ee
4gg
4cc
4ee
=21
4dd
8b
8cc
4dd
4bb
=22
4gg#
4aa
4ff#
4gg
=23
8ee
8ff#
8gg
8ee
4dd
4bb
=24
4gg#
4aa
4ff#
4gg
=25
4ee
4ee
4ee
4aa
=26
4ff#
4ff#
4ff#
8ee
8ff#
=27
4gg
4gg
8gg
8bb
8ddd
8bb
=28
4gg
4gg
4gg
8bb
8gg
=29
4ee
4ee
4ee
8ccc
8aa
=30
4ff#
4ff#
8ff#
8aa
8ff#
8dd
=31
2gg
4g
4bb
=32
4gg
4ee
4aa
4ff#
=33
4dd#
8ff#
8dd#
4b
4bb
=34
8gg
8aa
8gg
8ff#
4ee
4aa
=35
8ff#
8gg
8ff#
8ee
4dd
4ddd
=36
4ddd
4ddd
4ddd
4ddd
=37
8ddd
8aa
8ff#
8dd
4ddd
4ddd
=38
8ddd
8bb
8gg
8dd
4ddd
4ddd
=39
8ddd
8bb-
8gg
8dd
4ddd
4ddd
=40
8ddd
8ccc#
8ddd
8eee
8fff
8eee
8fff
8ddd
=41
8ccc#
8eee
8ccc#
8aa
4a
4bb
=42
4gg
4ee
4aa
8gg
8ee
=43
4dd
4ff#
4ee
8cc#
8a
=44
4ee
4gg
4ff#
8dd
8a
=45
4ff#
8aa
8ff#
4gg
4bb
=46
8bb
8aa
8eee
8ddd
8ccc#
8bb
8aa
8gg
=47
4ff#
2.r
=48
8aa
8ccc#
8eee
8ddd
8ccc#
8bb
8aa
8gg
=49
8ff#
8aa
8dd
8ff#
8f#
8dd
8a
8f#
=50
8e
8b
8g
8e
8d#
8cc
8a
8f#
=51
8e
8b
8g
8e
8d#
8cc
8a
8f#
=52
8e
8g
8b
8ee
8gg
8bb
8gg
8ee
=53
8cc#
8bb-
8gg
8ee
8dd
8aa
8ff
8dd
=54
8cc#
8bb-
8gg
8ee
8dd
8ddd
8aa
8ff
=55
8dd
8ddd
8aa
8ff
8dd
8ddd
8aa
8ff
=56
8dd
8ddd
8bb-
8gg
8dd
8ddd
8bb-
8gg
=57
8dd
8ddd
8aa
8ff
8dd
8ddd
8aa
8ff
=58
8dd
8bb-
8ddd
8bb-
8ff
8dd
8b-
8dd
=59
8ff
8bb-
8ddd
8bb-
8ff
8dd
8b-
8dd
=60
8b-
8dd
8ff
8dd
8b-
8f
8b-
8f
=61
8b-
8dd
8ff
8dd
8b-
8f
8b-
8f
=62
8b-
8f
8b-
8f
8b-
8f
8b-
8a
=63
1g#[
=64
4g#]
4g#
4g#
4g#
=65
1g#[
=66
4g#]
4g#
4g#
4g#
=67
1g[
=68
4g]
4g
4g
4g
=69
2f#
8e
8f#
8g
8e
=70
2d
8c#
8d
8e
8c#
=71
2d
4r
8aa
8ff#
=72
4ee
8ee
8gg
4bb
8bb
8aa
=73
2aa
4ddd
8aa
8ff#
=74
4ee
8ee
8ff#
8gg
8ff#
8gg
8ee
=75
2dd
4a
8aa
8ff#
=76
4ee
8ee
8gg
4bb
8bb
8aa
=77
2aa
4ddd
8aa
8ff#
=78
4ee
8ee
8ff#
8gg
8ff#
8gg
8ee
=79
8dd
8d
8f#
8a
8dd
8d
8f#
8a
=80
4cc
4b
4b-
4a
=81
4a
4g
4f#
4e
=82
8d
8dd
8ff#
8aa
8ddd
8dd
8ff#
8aa
=83
4ccc
4bb
4bb-
4aa
=84
4aa
4gg
4ff#
4ee
=85
8dd
8a
8f#
8d
4ee
4r
=86
4ff#
4r
4ccc#
4r
=87
4ddd
4r
4r
4r
=88
1r
=89
1r
=90
1r
=91
1r
=92
4r
8eee
8ddd
8ccc
8bb
8aa
8gg
=93
4ff#
8gg
8aa
8bb
8aa
8gg
8ff#
=94
8gg
8ff#
8ee
8dd#
8ee
8gg
8ff#
8aa
=95
8gg
8ee
8bb
8gg
8ee
8b
8ee
8b
=96
8ee
8gg
8bb
8gg
8ee
8b
8ee
8b
=97
2bb
2r
=98
2aa
2r
=99
8gg
8ee
8bb
8gg
8ee
8b
8ee
8b
=100
8ee
8gg
8bb
8gg
8ee
8b
8ee
8b
=101
8ee
8gg
8ccc
8gg
8ee
8cc
8ee
8cc
=102
8ff#
8aa
8ccc
8aa
8ff#
8cc
8ff#
8cc
=103
8b
8ff#
8bb
8ff#
8dd
8b
8dd
8b
=104
8ee
8gg
8bb
8gg
8ee
8b
8ee
8b
=105
8cc
8ee
8aa
8ee
8cc
8a
8cc
8a
=106
8b
8ff#
8aa
8ff#
8dd#
8b
8dd#
8b
=107
8ee
8gg
8bb
8gg
8ee
8b
8g
8b
=108
8e
8ee
8b
8g
8e
8ee
8b
8g
=109
8e
8ee
8cc
8a
8e
8ee
8cc
8a
=110
8e
8ee
8b
8g
8e
8ee
8b
8g
=111
8e
8ee
8b
8g#
8e
8ee
8b
8g#
=112
8e
8ee
8cc
8a
8e
8ee
8cc
8a
=113
8e
8ee
8dd
8b
8e
8ee
8dd
8b
=114
8a
8aa
8ee
8cc
8a
8aa
8ee
8cc#
=115
8a
8aa
8ff
8dd
8a
8aa
8gg
8ee
=116
8a
8aa
8ff
8dd
8g
8gg
8ff
8dd
=117
8g
8gg
8ee
8cc
4g
4gg
=118
4ee
4cc
4ff
4dd
=119
4b
8dd
8b
4g
8a
8b
=120
4cc
4dd
4ee
4dd
=121
4cc#
8ee
8cc#
4a
8b
8cc#
=122
4dd
4ee
4ff
4ee
=123
4dd#
8ff#
8dd#
4b
4bb
=124
4gg
4ee
4aa
4ff#
=125
4dd#
8ff#
8dd#
4b
8cc#
8dd#
=126
4ee
4gg
8ff#
8gg
8aa
8bb
=127
2.ccc
8bb
8aa
=128
8gg
8ff#
8gg
8aa
4bb
4bb
=129
8bb
8aa
8eee
8ddd
8ccc#
8bb
8aa
8gg
=130
4ff#
8aa
8ff#
4dd
4ddd
=131
4bb
4ddd
4gg
4bb
=132
4aa
8ff#
8gg
4aa
4ddd
=133
4bb
4ddd
4gg
4bb
=134
4aa
8ff#
8gg
4aa
4bb
=135
4ccc
8aa
8bb
4ccc
4ddd
=136
2.eee
4ccc
=137
4aa
4ff#
4cc
4a
=138
4f#
4d
4c
4r
=139
4r
8gg
8ff#
8ee
8dd
8cc
8b
=140
4a
8b
8cc
8dd
8ee
8dd
8cc
=141
8b
8a
8g
8f#
8g
8b
8a
8g
=142
8f#
8g
8a
8f#
4d
4dd
=143
4b
4g
4ee
4cc
=144
4a
4ff#
4dd
4b
=145
8gg
8ff#
8ee
8dd
4cc
4aa
=146
4ff#
4dd
8bb
8aa
8gg
8ff#
=147
4ee
8ccc
8bb
4aa
8ddd
8ccc
=148
4bb
4gg
4ee
4aa
=149
2gg
2ff#
=150
2.gg
4gg
=151
4ee
4gg
4cc
4ee
=152
4dd
8b
8cc
4dd
4gg
=153
4ee
4gg
4cc
4ee
=154
4dd
8b
8cc
4dd
4bb
=155
4gg#
4aa
4ff#
4gg
=156
8ee
8ff#
8gg
8ee
4dd
4bb
=157
4gg#
4aa
4ff#
4gg
=158
4ee
4ee
4ee
4aa
=159
4ff#
4ff#
4ff#
8ee
8ff#
=160
4gg
4gg
8gg
8bb
8ddd
8bb
=161
4gg
4gg
4gg
8bb
8gg
=162
4ee
4ee
4ee
8eee
8ccc
=163
4aa
4aa
4aa
8bb
8gg
=164
4ff#
4ddd
4bb
4gg#
=165
4eee
4ccc
4aa
4ff#
=166
4ddd
4bb
4gg
4ee
=167
4ccc
4aa
4ff#
4aa
=168
4gg
4bb
4aa
4ccc
=169
2.eee
8ddd
8ccc
=170
8bb
8ddd
8bb
8gg
8dd
8b
8g
8b
=171
8a
8b
8cc
8dd
8ee
8dd
8ee
8cc
=172
8b
8dd
8b
8g
8d
8g
8d
8B
=173
8A
8e
8c
8A
8G#
8f
8d
8B
=174
8A
8e
8c
8A
8G#
8f
8d
8B
=175
8A
8c
8e
8a
8cc
8ee
8cc
8a
=176
8f#
8ee-
8cc
8a
8g
8dd
8b-
8g
=177
8f#
8ee-
8cc
8a
8g
8gg
8dd
8b-
=178
8g
8gg
8dd
8b-
8g
8gg
8dd
8b-
=179
8g
8gg
8ee-
8cc
8g
8gg
8ee-
8cc
=180
8g
8gg
8dd
8b-
8g
8gg
8dd
8b-
=181
8g
8gg
8ee-
8b-
8g
8d
8e-
8f
=182
8g
8b-
8ee-
8gg
8bb-
8gg
8bb-
8gg
=183
8ee-
8gg
8bb-
8gg
8ee-
8b-
8ee-
8b-
=184
8ee-
8gg
8bb-
8gg
8ee-
8b-
8ee-
8b-
=185
8ee-
8b-
8ee-
8b-
8ee-
8b-
8ee-
8dd
=186
1cc#[
=187
4cc#]
4cc#
4cc#
4cc#
=188
1cc#[
=189
4cc#]
4cc#
4cc#
4cc#
=190
1cc[
=191
4cc]
4cc
4cc
4cc
=192
2b
8a
8b
8cc
8a
=193
2g
8f#
8g
8a
8f#
=194
2g
4r
8dd
8b
=195
4a
8a
8cc
4ee
8ee
8dd
=196
2dd
4gg
8dd
8b
=197
4a
8a
8b
8cc
8b
8cc
8a
=198
2g
4d
8dd
8b
=199
4a
8a
8cc
4ee
8ee
8dd
=200
2dd
4gg
8ee
8dd
=201
4dd
8ee
8dd
4dd
8ee
8dd
=202
2dd
4gg
8ee
8dd
=203
4dd
8ee
8dd
4dd
8ff
8ee
=204
4ee
8ff
8ee
4ee
8gg#
8aa
=205
4aa
8bb
8ccc
4ccc
8ff#
8gg
=206
4gg
8aa
8bb
4bb
8ddd
8bb
=207
4aa
8aa
8ccc
4eee
8eee
8ddd
=208
2ddd
4ggg
8ddd
8bb
=209
4aa
8aa
8bb
8ccc
8bb
8ccc
8aa
=210
2gg
4dd
8ddd
8bb
=211
4aa
8aa
8ccc
4eee
8eee
8ddd
=212
2ddd
4ggg
8ddd
8bb
=213
4aa
8aa
8bb
8ccc
8bb
8ccc
8aa
=214
8bb
8gg
8bb
8ddd
8ggg
8gg
8bb
8ddd
=215
4fff
4eee
4eee-
4ddd
=216
4ddd
4ccc
4bb
4aa
=217
8gg
8g
8b
8dd
8gg
8g
8b
8dd
=218
4ff
4ee
4gg
4ff#
=219
4aa
4gg
4ccc
4bb
=220
2eee
2r
=221
2ff#
2r
=222
8gg
8dd
8b
8g
4aa
4r
=223
4bb
4r
4ddd
4r
=224
4bb
2.r
==
*-
